X:1
T:Le Quattro Stagioni
T:Le Quattro Stagioni
T:L'estate 1° Mov.
T:Antonio Vivaldi
T:arr. Joseph Nguyen
C:Antonio Vivaldi
%%score { ( 1 3 ) | 2 }
L:1/8
Q:1/4=50
M:3/8
K:Bb
V:1 treble nm="Piano" snm="Pno."
V:3 treble 
V:2 bass 
V:1
"^LANGUIDEZZA PER IL CALDO\nSotto dura staggion dal sole accesa, Langue l'huom, langue 'l gregge, ed arde il Pino;\n""^Allegro non molto"!pp! z [gb][^fa] | %1
 z [GB][^FA] | z ([Ac]/[Bd]/)[ce] | z ([^FA]/[GB]/)[Ac] | [gb]2 z | ([Ac][GB])[^FA] | [ac']2 z | %7
 ([Bd][Ac])[GB] | [bd']2 z | ([ce][Bd])[Ac] | !fermata![C^F]3 | ([gb][^fa][eg] | [d^f][ce][Bd]) | %13
 [Ac]3- | [Ac]3 | ([ac'][gb][^fa] | [eg][d^f][ce]) | [Bd]3- | [Bd]3- | [Bd]2 z | %20
 z ([gb]/[ac']/)[bd'] | z ([c_a]/[db]/)[ec'] | z ([Bg]/[ca]/)[db] | z ([A^f]/[Bg]/)[ca] | z [Bg]2 | %25
 z ([GB]/[Ac]/)[Bd] | z ([C_A]/[DB]/)[Ec] | z ([B,G]/[CA]/)[DB] | z ([A,^F]/[B,G]/)[CA] | %29
 z [B,G]2 || %30
[M:4/4]!mf!"^IL CUCCO\nScioglie il cucco la voce,\n"[Q:1/4=138]"^Allegro" G/g/g/g/ g/g/B/g/ G/g/g/g/ g/g/B/g/ | %31
 G/g/g/g/ g/g/B/g/ G/g/g/g/ g/g/B/g/ | G/g/g/g/ g/g/B/g/ G/B/A/B/ G/B/A/G/ | %33
 A/a/a/a/ a/a/c/a/ A/a/a/a/ a/a/c/a/ | A/a/a/a/ a/a/c/a/ A/c/B/c/ A/c/B/A/ | %35
 B/b/b/b/ b/b/d/b/ B/b/b/b/ b/b/d/b/ | B/d/c/d/ B/d/c/B/ c/c'/c'/c'/ c'/c'/e/c'/ | %37
 c/c'/c'/c'/ c'/c'/e/c'/ c/e/d/e/ c/e/d/c/ | d/d'/d'/d'/ d'/d'/^f/d'/ d/d'/d'/d'/ d'/d'/f/d'/ | %39
 d/b/b/b/ b/b/g/b/ d/b/b/b/ b/b/g/b/ | e/b/b/b/ b/b/g/b/ e/b/b/b/ b/b/g/b/ | %41
 e/c'/c'/c'/ c'/c'/g/c'/ =e/c'/c'/c'/ c'/c'/g/c'/ | %42
 f/c'/c'/c'/ c'/c'/a/c'/ f/c'/c'/c'/ c'/c'/a/c'/ | %43
 f/d'/d'/d'/ d'/d'/a/d'/ ^f/d'/d'/d'/ d'/d'/a/d'/ | b/g/g/g/ g/g/d/g/ B/g/g/g/ g/g/d/g/ | %45
 e/f/f/f/ f/f/c/f/ A/f/f/f/ f/f/c/f/ | d/e/e/e/ e/e/B/e/ G/e/e/e/ e/e/B/e/ | %47
 c/d/d/d/ d/d/A/d/ ^F/d/d/d/ d/d/A/d/ | %48
!f! B/[dg]/[dg]/[dg]/ [dg]/[dg]/[Bd]/g/ [GB]/[dg]/[dg]/[dg]/ [dg]/[dg]/[Bd]/[dg]/ | %49
 [DA]/[Ag]/[Ag]/[Ag]/ [Ag]/[Ag]/[Gd]/[Ag]/ [DA]/[Ag]/[Ag]/[Ag]/ [Ag]/[Ag]/[Gd]/[Ag]/ | %50
 [DA]/[A^f]/[Af]/[Af]/ [Af]/[Af]/[^Fd]/[Af]/ [DA]/[Af]/[Af]/[Af]/ [Af]/[Af]/[Fd]/[Af]/ || %51
[M:3/8][Q:1/4=50]"^\n"!pp! [Bg][gb][^fa] | z [GB][^FA] | z ([gb]/[ac']/)[bd'] | %54
 z ([c_a]/[db]/)[ec'] | z ([Bg]/[ca]/)[db] | z ([A^f]/[Bg]/)[ca] | %57
"^LA TORTORELLA\ne tosto intesa\n" z!mf! [Bg]2 |"^canta la tortorella e'l gardelino." d>ed/e/ | %59
 d>ed/e/ | d>gd/g/ | d/g/d/g/d/g/ | _AGG/>g/ | _AGG/>f/ | _AGG/>e/ | _AGG/>d/ | %66
 _AG (G/4=A/4B/4c/4) | d2 (G/4A/4B/4c/4) | d2 (G/4A/4B/4c/4) | d !trill(!TG2 | %70
[Q:1/4=59]!p! (3([gb]/[ac']/[bd']/) (3([gb]/[ac']/[bd']/) (3([gb]/[ac']/[bd']/) | %71
"^IL GARDELLINO" !trill(!Td'2 z | !trill(!Td'2 z/4 x/4 x/4 x/4 | !trill(!Td'2 z/4 x/4 x/4 x/4 | %74
 d'/4g'/4d'/4g'/4 d'/4g'/4d'/4g'/4 d'/4g'/4d'/4g'/4 | %75
 d'/4g'/4d'/4g'/4 d'/4g'/4d'/4g'/4 d'/4g'/4d'/4g'/4 | !trill(!Td'3 | %77
"^ZEFFIRETTI DOLCI\nZeffiro dolce spira,\n"!p![Q:1/4=66] (3([gb]/[ac']/[bd']/) (3([gb]/[ac']/[bd']/) (3([gb]/[ac']/[bd']/) | %78
 (3([^fa]/[gb]/[ac']/) (3([fa]/[gb]/[ac']/) (3([fa]/[gb]/[ac']/) | %79
 (3([gb]/[ac']/[bd']/) (3([gb]/[ac']/[bd']/) (3([gb]/[ac']/[bd']/) | %80
 (3([^fa]/[gb]/[ac']/) (3([fa]/[gb]/[ac']/) (3([fa]/[gb]/[ac']/) | %81
 [gb]/>[ac']/[gb]/>[ac']/[gb]/>[ac']/ |!pp! [gb]/>[ac']/[gb]/>[ac']/[gb]/>[ac']/ | %83
!p! [fa]/>[gb]/[fa]/>[gb]/[fa]/>[gb]/ |!pp! [fa]/>[gb]/[fa]/>[gb]/[fa]/>[gb]/ | %85
!p! [=eg]/>[fa]/[eg]/>[fa]/[eg]/>[fa]/ |!pp! [=eg]/>[fa]/[eg]/>[fa]/[eg]/>[fa]/ | %87
!p! [df]/>[=eg]/[df]/>[eg]/[df]/>[eg]/ |!pp! [df]/>[=eg]/[df]/>[eg]/[df]/>[eg]/ | %89
[Q:1/4=70]"^VENTI DIVERSI\nmà contesa Muove Borea improviso al suo vicino;\n"!f! f/4d'/4c'/4b/4 a/4d'/4c'/4b/4 a/4g/4f/4=e/4 | %90
 f/4a/4g/4f/4 =e/4a/4g/4f/4 e/4d/4^c/4=B/4 | A/4G/4F/4D/4 F/4G/4A/4F/4 A/4=B/4^c/4A/4 | %92
"^VENTO BOREA" d/4=e/4f/4d/4 f/4g/4a/4f/4 a/4=b/4^c'/4a/4 | %93
 [ad']/4d/4[ad']/4d/4 [ad']/4d/4[ad']/4d/4 [ad']/4d/4[ad']/4d/4 | %94
 [ac']/4d/4[ac']/4d/4 [ac']/4d/4[ac']/4d/4 [ac']/4d/4[ac']/4d/4 | %95
 [gb]/4d/4[gb]/4d/4 [gb]/4d/4[gb]/4d/4 [gb]/4d/4[gb]/4d/4 | %96
 [fa]/4d/4[fa]/4d/4 [fa]/4d/4[fa]/4d/4 [fa]/4d/4[fa]/4d/4 | %97
!mf! [bd']/4d/4[bd']/4d/4 [bd']/4d/4[bd']/4d/4 [bd']/4d/4[bd']/4d/4 | %98
 [ac']/4d/4[ac']/4d/4 [ac']/4d/4[ac']/4d/4 [ac']/4d/4[ac']/4d/4 | %99
 [gb]/4d/4[gb]/4d/4 [gb]/4d/4[gb]/4d/4 [gb]/4d/4[gb]/4d/4 | %100
 [fa]/4d/4[fa]/4d/4 [fa]/4d/4[fa]/4d/4 [fa]/4d/4[fa]/4d/4 | %101
!f! g/4=e/4g/4e/4 g/4e/4g/4e/4 g/4e/4g/4e/4 | a/4f/4a/4f/4 a/4f/4a/4f/4 a/4f/4a/4f/4 | %103
 b/4g/4b/4g/4 b/4g/4b/4g/4 b/4g/4b/4g/4 | a/4f/4a/4f/4 a/4f/4a/4f/4 a/4f/4a/4f/4 | %105
 g/4=e/4g/4e/4 g/4e/4g/4e/4 g/4e/4g/4e/4 | f/4d/4f/4d/4 f/4d/4f/4d/4 f/4d/4f/4d/4 | %107
 =e/4d/4e/4d/4 e/4d/4e/4d/4 e/4d/4e/4d/4 | =e/4^c/4e/4c/4 e/4c/4e/4c/4 e/4c/4e/4c/4 | %109
!pp![Q:1/4=50] [Fd][df][^c=e] | z [=eg][df] | z ([Bg]/[ca]/)[db] | z ([Ge]/[Af]/)[Bg] | %113
 z ([Fd]/[G=e]/)[Af] | z ([=E^c]/[Fd]/)[G=e] | %115
"^IL PIANTO DEL VILLANELLO\nE piange il Pastorel, perchè sospesa Teme fiera\n" d/f/=e/g/f- | %116
 f/=b/=e/f/d/e/ |"^borasca e'l suo destino." ^c/=e/d/f/_e- | e/a/d/e/c/d/ | =B/d/c/e/_d- | %120
 d/g/c/_d/B/c/ | A/c/B/d/c- | c/a/=B/c/A/B/ | G/=B/=e/^f/g- | g/^c'/^f/g/=e/f/ | e3 | %126
 (=b/a/^g/f/=e/d/) | ^c3 | (a/g/^f/e/d/c/) | =B3 | (g/f/=e/d/c/B/) | A3 | (B/c/d/e/f/)g/ | _agf | %134
 =e/_d'/c'/b/_a/g/ | f/c'/_a/g/f/e/ | d/c'/b/_a/g/f/ | e/b/_a/g/f/e/ | _d3 | c/(g/f/e/d/c/) | %140
 ^f3- | f(ga) | (bc')d' | (ed)c | (_a/b/g/a/)^f | (c'/d'/b/c'/)_a | (e'd'c') |{b} _a3 | (c'b_a) | %149
{g} ^f3 | (gf)e |{d} ^c3 | (d3/2=e/4^f/4 g/a/4b/4) | c'/a/{g} !trill(!T^f>g | %154
!f![Q:1/4=70] [Bdg]/4D/4[Bd]/4D/4 [Bd]/4D/4[Bd]/4D/4 [Bd]/4D/4[Bd]/4D/4 | %155
 [Ac]/4D/4[Ac]/4D/4 [Ac]/4D/4[Ac]/4D/4 [Ac]/4D/4[Ac]/4D/4 | %156
 [GB]/4D/4[GB]/4D/4 [GB]/4D/4[GB]/4D/4 [GB]/4D/4[GB]/4D/4 | %157
 [^FA]/4D/4[FA]/4D/4 [FA]/4D/4[FA]/4D/4 [FA]/4D/4[FA]/4D/4 | %158
!mf! [Bd]/4D/4[Bd]/4D/4 [Bd]/4D/4[Bd]/4D/4 [Bd]/4D/4[Bd]/4D/4 | %159
 [Ac]/4D/4[Ac]/4D/4 [Ac]/4D/4[Ac]/4D/4 [Ac]/4D/4[Ac]/4D/4 | %160
 [GB]/4D/4[GB]/4D/4 [GB]/4D/4[GB]/4D/4 [GB]/4D/4[GB]/4D/4 | %161
 [^FA]/4D/4[FA]/4D/4 [FA]/4D/4[FA]/4D/4 [FA]/4D/4[FA]/4D/4 | %162
!f! d'/4c'/4c'/4b/4 b/4a/4a/4g/4 g/4f/4f/4e/4 | e/4d/4d/4c/4 c/4B/4B/4A/4 A/4G/4G/4^F/4 | %164
 ^F/4F/4G/4A/4 B/4c/4d/4e/4 ^f/4e/4d/4c/4 | B/4B/4c/4d/4 e/4f/4g/4a/4 b/4a/4g/4f/4 | %166
 e/4f/4e/4f/4 d/4e/4d/4e/4 c/4d/4c/4d/4 | B/4c/4B/4c/4 A/4B/4A/4B/4 G/4A/4G/4A/4 | %168
 ^F/4D/4=E/4F/4 G/4A/4B/4c/4 d/4c/4B/4A/4 | B/4G/4F/4E/4 D/4E/4D/4C/4 B,/4C/4B,/4A,/4 | %170
 G,/4G/4F/4E/4 D/4E/4D/4C/4 B,/4C/4B,/4A,/4 | G,/4G/4F/4E/4 D/4E/4D/4C/4 B,/4C/4B,/4A,/4 | %172
 G,/4G/4F/4E/4 D/4E/4D/4C/4 B,/4C/4B,/4A,/4 |[Q:1/4=35] !fermata!G,3 |] %174
V:2
!ped! z G,D,!ped-up! |!ped! z G,,D,,!ped-up! |!ped! z D,D,,!ped-up! |!ped! z D,D,,!ped-up! | %4
 G,,2 z |!ped! D,2 z!ped-up! | D,2 z |!ped! G,,2 z!ped-up! | G,,2 z |!ped! C,3!ped-up! | %10
!ped! !fermata!D,3!ped-up! |!ped! z3!ped-up! |!ped! z3!ped-up! |!ped! (DCB,!ped-up! | %14
!ped! A,/)G,/^F,E,!ped-up! |!ped! D,3-!ped-up! |!ped! D,3!ped-up! |!ped! G,^F,E,!ped-up! | %18
!ped! D,/C,/B,,A,,!ped-up! | G,,2 z |!ped! z G,G,,!ped-up! |!ped! z CC,!ped-up! | %22
!ped! z G,G,,!ped-up! |!ped! z D,D,,!ped-up! |!ped! z G,,2!ped-up! |!ped! z G,G,,!ped-up! | %26
!ped! z C,C,,!ped-up! |!ped! z G,G,,!ped-up! |!ped! z D,D,,!ped-up! |!ped! z G,,2!ped-up! || %30
[M:4/4] G,,>G, G,,2 z z/ G,/ G,,2 | G,,>G, G,,2 z z/ G,/ G,,2 | z z/ G,/ G,,2 G,^F,G,G,, | %33
 D,>D ^F,2 z z/ D/ F,2 | z z/ D/ ^F,2 F,G,A,D, | G,,>G, G,,2 z z/ G,/ G,,2 | G,A,B,G, A,,>A, A,,2 | %37
 z z/ A,/ A,,2 A,B,CA, | B,>D ^F,2 z z/ D/ F,2 | z z/ G,/ G,,2 z z/ G,/ G,,2 | %40
 z z/ E/ G,2 z z/ E/ G,2 | z z/ C/ =E,2 z z/ C/ E,2 | z z/ C/ F,2 z z/ C/ F,2 | %43
 z z/ D/ ^F,2 z z/ D/ F,2 | z z/ G,/ B,,2 z z/ G,/ B,,2 | z z/ F/ A,2 z z/ F/ A,2 | %46
 z z/ E/ G,2 z z/ E/ G,2 | z z/ D/ F,2 z z/ D/ ^F,2 | %48
!ped! G,,/G,/G,/G,/ G,/G,/G,,/G,/ G,,/G,/G,/G,/ G,/G,/G,,/G,/!ped-up! | %49
!ped! D,,/D,/D,/D,/ D,/D,/D,,/D,/ D,,/D,/D,/D,/ D,/D,/D,,/D,/!ped-up! | %50
!ped! D,,/D,/D,/D,/ D,/D,/D,,/D,/ D,,/D,/D,/D,/ D,/D,/D,,/D,/!ped-up! || %51
[M:3/8]!ped! G,,G,D,!ped-up! |!ped! z G,,D,,!ped-up! |!ped! z G,G,,!ped-up! |!ped! z CC,!ped-up! | %55
!ped! z G,G,,!ped-up! |!ped! z D,D,,!ped-up! |!ped! z G,,2!ped-up! |!ped! G,,3-!ped-up! | %59
!ped! G,,3-!ped-up! |!ped! G,,3-!ped-up! |!ped! G,,3-!ped-up! |!ped! G,,/>G,/ G,,2-!ped-up! | %63
!ped! G,,/>F,/ G,,2-!ped-up! |!ped! G,,/>E,/ G,,2-!ped-up! |!ped! G,,/>D,/ G,,2-!ped-up! | %66
!ped! G,,3-!ped-up! |!ped! G,,3-!ped-up! |!ped! G,,3-!ped-up! |!ped! G,,3!ped-up! | %70
!ped! G,/G,/G,/G,/G,/G,/!ped-up! | z3 | z3 | z3 |!ped! z3!ped-up! |!ped! z3!ped-up! | %76
!ped! z3!ped-up! |!ped! G,/G,/G,/G,/G,/G,/!ped-up! |!ped! D/D/D/D/D/D/!ped-up! | %79
!ped! G,/G,/G,/G,/G,/G,/!ped-up! |!ped! D/D/D/D/D/D/!ped-up! |!ped! G,/G,/G,/G,/G,/G,/!ped-up! | %82
!ped! ^C,/C,/C,/C,/C,/C,/!ped-up! |!ped! D,/D,/D,/D,/D,/D,/!ped-up! | %84
!ped! D,/D,/D,/D,/D,/D,/!ped-up! |!ped! =E,/E,/E,/E,/E,/E,/!ped-up! | %86
!ped! A,,/A,,/A,,/A,,/A,,/A,,/!ped-up! |!ped! D,/D,/D,/D,/D,/D,/!ped-up! | %88
!ped! D,/D,/D,/D,/D,/D,/!ped-up! |!ped! D,/D/ D,/D,,/D,,/D,,/!ped-up! | %90
!ped! A,,/A,/ A,,/A,,/A,,/A,,/!ped-up! |!ped! D,/D/ D,/D,,/D,,/D,,/!ped-up! | %92
!ped! D,/D/ D,/D,,/D,,/D,,/!ped-up! |!ped! D,/D/ D,/D,,/D,,/D,,/!ped-up! | %94
!ped! D,/D/ D,/D,,/D,,/D,,/!ped-up! |!ped! D,/D/ D,/D,,/D,,/D,,/!ped-up! | %96
!ped! D,/D/ D,/D,,/D,,/D,,/!ped-up! |!ped! D,/D/ D,/D,,/D,,/D,,/!ped-up! | %98
!ped! D,/D/ D,/D,,/D,,/D,,/!ped-up! |!ped! D,/D/ D,/D,,/D,,/D,,/!ped-up! | %100
!ped! D,/D/ D,/D,,/D,,/D,,/!ped-up! |!ped! A,,/A,/ ^C,/A,,/A,,/A,,/!ped-up! | %102
!ped! A,,/A,/ D,/A,,/A,,/A,,/!ped-up! |!ped! A,,/A,/ =E,/A,,/A,,/A,,/!ped-up! | %104
!ped! A,,/A,/ D,/A,,/A,,/A,,/!ped-up! |!ped!"_dim." A,,/A,/ ^C,/A,,/A,,/A,,/!ped-up! | %106
!ped! A,,/A,/ D,/A,,/A,,/A,,/!ped-up! |!ped! A,,/A,/ D,/A,,/A,,/A,,/!ped-up! | %108
!ped! A,,/A,/ ^C,/A,,/A,,/A,,/!ped-up! |!ped! [D,,D,]D,A,,!ped-up! |!ped! z A,,D,!ped-up! | %111
!ped! z G,G,,!ped-up! |!ped! z G,G,,!ped-up! |!ped! z DD,!ped-up! |!ped! z A,A,,!ped-up! | %115
!ped! D,3!ped-up! |!ped! ^G,3!ped-up! |!ped! G,3!ped-up! |!ped! ^F,3!ped-up! |!ped! F,3!ped-up! | %120
!ped! =E,3!ped-up! |!ped! E,3!ped-up! |!ped! E,3!ped-up! |!ped! =E,3!ped-up! |!ped! B,,3!ped-up! | %125
!ped! A,,3!ped-up! |!ped! ^G,,3!ped-up! |!ped! G,,3!ped-up! |!ped! ^F,,3!ped-up! | %129
!ped! F,,3!ped-up! |!ped! =E,,3!ped-up! |!ped! E,,3!ped-up! |!ped! D,,3!ped-up! | %133
!ped! =B,3!ped-up! |!ped! B,3!ped-up! |!ped! _A,3-!ped-up! |!ped! A,3!ped-up! |!ped! G,3!ped-up! | %138
!ped! F,3!ped-up! |!ped! E,3-!ped-up! |!ped! E,3!ped-up! |!ped! D,2 C,!ped-up! | %142
!ped! B,,A,,G,,!ped-up! |!ped! C,3-!ped-up! |!ped! C,3-!ped-up! |!ped! C,3-!ped-up! | %146
!ped! C,3-!ped-up! |!ped! C,3-!ped-up! |!ped! C,3-!ped-up! |!ped! C,3!ped-up! |!ped! G,3-!ped-up! | %151
!ped! G,3!ped-up! |!ped! ^F,D,G,!ped-up! |!ped! E,/C,/D,D,,!ped-up! | %154
!ped! G,,/G,/G,,/G,,/G,,/G,/!ped-up! |!ped! D,/D/ D,/D,,/D,,/D,,/!ped-up! | %156
!ped! D,/D/ D,/D,,/D,,/D,,/!ped-up! |!ped! D,/D/ D,/D,,/D,,/D,,/!ped-up! | %158
!ped! D,/D/ D,/D,,/D,,/D,,/!ped-up! |!ped! D,/D/ D,/D,,/D,,/D,,/!ped-up! | %160
!ped! D,/D/ D,/D,,/D,,/D,,/!ped-up! |!ped! D,/D/ D,/D,,/D,,/D,,/!ped-up! | %162
!ped! G,,/G,/ G,,/G,,/G,,/G,,/!ped-up! |!ped! C,/C/ C,/C,,/C,,/C,,/!ped-up! | %164
!ped! D,/D/ D,/D,,/D,,/D,,/!ped-up! |!ped! G,,/G,/ G,,/G,,/G,,/G,,/!ped-up! | %166
!ped! C,/C/ C,/C,/C,/C,/!ped-up! |!ped! ^C,/^C/ C,/C,/C,/C,/!ped-up! | %168
!ped! D,/D/ D,/D,/D,/D,/!ped-up! | %169
!ped! G,,/4G,/4F,/4E,/4 D,/4E,/4D,/4C,/4 B,,/4C,/4B,,/4A,,/4!ped-up! | %170
!ped! G,,/4G,/4F,/4E,/4 D,/4E,/4D,/4C,/4 B,,/4C,/4B,,/4A,,/4!ped-up! | %171
!ped! G,,/4G,/4F,/4E,/4 D,/4E,/4D,/4C,/4 B,,/4C,/4B,,/4A,,/4!ped-up! | %172
!ped! G,,/4G,/4F,/4E,/4 D,/4E,/4D,/4C,/4 B,,/4C,/4B,,/4A,,/4!ped-up! |!ped! G,,3!ped-up! |] %174
V:3
 x3 | x3 | x3 | x3 | x3 | x3 | x3 | x3 | x3 | x3 | x3 | x3 | x3 | x3 | x3 | x3 | x3 | x3 | x3 | %19
 x3 | x3 | x3 | x3 | x3 | x3 | x3 | x3 | x3 | x3 | x3 ||[M:4/4] x8 | x8 | x8 | x8 | x8 | x8 | x8 | %37
 x8 | x8 | x8 | x8 | x8 | x8 | x8 | x8 | x8 | x8 | x8 | x8 | x8 | x8 ||[M:3/8] x3 | x3 | x3 | x3 | %55
 x3 | x3 | x3 | x3 | x3 | x3 | x3 | x3 | x3 | x3 | x3 | x3 | x3 | x3 | x3 | x3 | [gb]2 x | %72
 x9/4 g'/4d'/4!trill)!g'/4 | x9/4 g'/4d'/4!trill)!g'/4 | x3 | x3 | x3 | x3 | x3 | x3 | x3 | x3 | %82
 x3 | x3 | x3 | x3 | x3 | x3 | x3 | x3 | x3 | x3 | x3 | x3 | x3 | x3 | x3 | x3 | x3 | x3 | x3 | %101
 x3 | x3 | x3 | x3 | x3 | x3 | x3 | x3 | x3 | x3 | x3 | x3 | x3 | x3 | F3 | x3 | x3 | x3 | x3 | %120
 x3 | x3 | x3 | x3 | x3 | x3 | x3 | x3 | x3 | x3 | x3 | x3 | x3 | x3 | x3 | x3 | x3 | x3 | x3 | %139
 x3 | x3 | x3 | x3 | x3 | x3 | x3 | x3 | x3 | x3 | x3 | x3 | x3 | x3 | x3 | x3 | x3 | x3 | x3 | %158
 x3 | x3 | x3 | x3 | x3 | x3 | x3 | x3 | x3 | x3 | x3 | x3 | x3 | x3 | x3 | x3 |] %174

